-----BEGIN PGP PUBLIC KEY BLOCK-----

mQINBGqbaGcBEADHwOwEHYWBBpZSb+7JUL4lnju9LoGmSQckY07gwXM3xl1sP3Cz
973HP2C86pHSipHdc3d8IvaDW15ajp6QA8rfUIIs5pieREMcAmJLM2hWoKB308+y
sbeYVeeP6N2ZTyHF+rsK6Z3DecCSB6ptO2SwDASOVuSYP2W6mtHIUE/y3Ka3Zl/f
gRESUqCVQX+KKJzb2sTHHuehSDUEkS/itWDlJ1rUkxtzvKUCuROPxgDw22ehaZLX
+88hPOGd0Qe+A/WhI9cAa1GFiNEUkBZ8OHcUZvaRabi+yp1NlB+8u7gBb0wNE07n
GBfWIQ1YKzA2gMqZHYlke2s42GDhrJnIowkPG8CYhLO+zj46yA/NvyA1McsMzmQR
voh/TCyEmU1x6KTBMzY4azn31/QayXFzDy2Z/sw/U9usxYKDobCvuWm6FNrlK59V
jyvjLxedEiMxCqr11QUiLBroHs5M7nJRrrj01j+pFt3R0snzEihZXpMLtFTjS16c
qUJP12BlHZjibeMbkbSpkow1QDAklnK4not42uj/nJiaBtuHsOj9rPhzYFRV+r0f
0dw3Z8HGda2d0lyotH9+XhKNPU0+NrSqLj8dwpVrfLYMxjd01BMNxqtJrja0vlLq
5OhgK3TOm6isjn/eVWHYSfRYqBZi9sQOuZCb7VlSVSaSY5TV/ejegE06/wARAQAB
tDJNZWRpYUhhcmJvciBSZWxlYXNlIFNpZ25pbmcgPGluZm9AbWVkaWFoYXJib3Iu
b3JnPokCVAQTAQoAPhYhBE5+12TftPG2WcHFcN165fnCCkBHBQJqm2hnAhsDBQkF
o5qABQsJCAcCBhUKCQgLAgQWAgMBAh4BAheAAAoJEN165fnCCkBHNfMQAKZIRnLG
KMbVQWeC83xo+rzFscMmFiY5q/eY5CvuaQ9D3WjZKL6u8uSDQbluLdIfERiFQpp2
xEKAb1eZMw5Uz479h5nvvYqKZX6VHEulswgtSMwK7WMirXrgMbNLnticYqdjiiR6
WzX8j8olUTKh0/7MLOjqLbTCOdARM2fEHIuRrsM9qblTFe4Gbv2+mZlSeMlll8Fv
ykzp8ow371qOsC42fCBuG2tzJvHJt7jvTvMQtHn4Cqgd5ZFwtAd32IqigevhXle8
UJ+smW9u7i/hq1W8x+DyAff6by+JqWM9NsX/I2etRu9hZw1Vt4htJZe5ITUg7X7L
TZ3y/OtTGwxydwurnUqojRFjiijJaIPPLkb3/Pm5qHHH9/F7azh0Kes0Uy7chuYm
D7wm7HdAKhGJiPN8PkfSwUzA1i9+IBwoW+lv3Noh17/1ZoteCQDr8q+cLPdHJKZ9
sLcUJSWoUU18F0zels8hirPQO7RPP5HCk4zQlOKkpPMXwFPYAOiyxHBN8HO67pJ/
vU3cF7lnGmnpHpP1v04QRH+pgH7q+6DJ0IMUmQ2FcI3perZKCV25giYeryrHhnVw
3uVer3kEizeraZYeAGMs1WwL/1H1V7w/mjMIbCX9bHTLDhtODpMOf0clC/neKzkA
1o/Ji1FpKQFJhd8D/9KIvzO4IfsmOV1u5Ahp
=3kA1
-----END PGP PUBLIC KEY BLOCK-----
